X: 100
T:London New. JMP.100
M:2/2
L:1/2
S:John Miller MS. Perth, 1799.(for the fife)
R:sacred
O:Scotland
A:Perth
H:1799   
Z:vmp.C. Graebe
K:G major
G2 | dB | gd | eg | f2 || d2 |  gB | dA | G2 ||!
 d2 | ge | fd | ee | d2||B2 | dg | BA | G2 |]
